assets/images/money-bag.svg

<svg xmlns="http://www.w3.org/2000/svg" xml:space="preserve" id="Layer_1" x="0" y="0" viewBox="0 0 20 20"><style>.st0{fill-rule:evenodd;clip-rule:evenodd}</style><path d="M5 20h10c2.6 0 4.5-2.4 3.9-4.9l-1.2-5.3c-.4-1.8-1.5-3.3-3.1-4.3l-2.1-1.3c-.5-.3-.6-1.1-.2-1.6L13.8.8c.4-.3.1-.8-.3-.8h-7c-.4 0-.7.5-.4.9l1.5 1.8c.5.4.4 1.1-.1 1.5L5.4 5.5c-1.5.9-2.6 2.5-3 4.3l-1.2 5.3C.6 17.6 2.5 20 5 20m5-11c-1.7 0-3 1.3-3 3s1.3 3 3 3 3-1.3 3-3-1.3-3-3-3" class="st0"/></svg>

<svg xmlns="http://www.w3.org/2000/svg" xmlns:xlink="http://www.w3.org/1999/xlink" id="Layer_1" x="0" y="0" version="1.1" viewBox="0 0 20 20" style="enable-background:new 0 0 20 20" xml:space="preserve"><style type="text/css">.st0{fill-rule:evenodd;clip-rule:evenodd}</style><path d="M5,20H15c2.6,0,4.5-2.4,3.9-4.9l-1.2-5.3c-0.4-1.8-1.5-3.3-3.1-4.3l-2.1-1.3c-0.5-0.3-0.6-1.1-0.2-1.6l1.5-1.8	C14.2,0.5,13.9,0,13.5,0h-7C6.1,0,5.8,0.5,6.1,0.9l1.5,1.8C8.1,3.1,8,3.8,7.5,4.2L5.4,5.5C3.9,6.4,2.8,8,2.4,9.8l-1.2,5.3	C0.6,17.6,2.5,20,5,20z M10,9c-1.7,0-3,1.3-3,3s1.3,3,3,3c1.7,0,3-1.3,3-3S11.7,9,10,9z" class="st0"/></svg>
